polaris-icons/icons/new-icons/InventoryMajor.svg

<svg width="20" height="20" viewBox="0 0 20 20" fill="none" xmlns="http://www.w3.org/2000/svg">
<path d="M11.2652 2.95387C10.5016 2.43465 9.49836 2.43465 8.7348 2.95387L4.64134 5.73742C3.61459 6.43561 3 7.59676 3 8.8384V16.2505C3 16.6647 3.33579 17.0005 3.75 17.0005C4.16421 17.0005 4.5 16.6647 4.5 16.2505V8.8384C4.5 8.09341 4.86875 7.39673 5.4848 6.97781L9.57827 4.19426C9.83279 4.02118 10.1672 4.02118 10.4217 4.19426L14.5152 6.97781C15.1312 7.39673 15.5 8.09341 15.5 8.8384V16.2505C15.5 16.6647 15.8358 17.0005 16.25 17.0005C16.6642 17.0005 17 16.6647 17 16.2505V8.8384C17 7.59676 16.3854 6.43561 15.3587 5.73742L11.2652 2.95387Z" fill="#4A4A4A"/>
<path fill-rule="evenodd" clip-rule="evenodd" d="M10 16.969C9.92009 16.9895 9.83632 17.0005 9.75 17.0005H6.75C6.19772 17.0005 5.75 16.5528 5.75 16.0005L5.75 12.5005C5.75 11.9482 6.19772 11.5005 6.75 11.5005H7.5V8.50049C7.5 7.9482 7.94772 7.50049 8.5 7.50049H11.5C12.0523 7.50049 12.5 7.9482 12.5 8.50049V11.5005H13.25C13.8023 11.5005 14.25 11.9482 14.25 12.5005V16.0005C14.25 16.5528 13.8023 17.0005 13.25 17.0005H10.25C10.1637 17.0005 10.0799 16.9895 10 16.969ZM10.75 13.0005V15.5005H12.75V13.0005H10.75ZM9.25 15.5005L9.25 13.0005H7.25V15.5005H9.25ZM11 11.5005L11 9.00049H9V11.5005H11Z" fill="#4A4A4A"/>
</svg>

<svg viewBox="0 0 20 20" xmlns="http://www.w3.org/2000/svg"><path d="M11.265 2.954a2.25 2.25 0 0 0-2.53 0l-4.094 2.783a3.75 3.75 0 0 0-1.641 3.101v7.412a.75.75 0 0 0 1.5 0v-7.412c0-.745.369-1.441.985-1.86l4.093-2.784a.75.75 0 0 1 .844 0l4.093 2.784a2.25 2.25 0 0 1 .985 1.86v7.412a.75.75 0 0 0 1.5 0v-7.412a3.75 3.75 0 0 0-1.641-3.1l-4.094-2.784Z" fill="#5C5F62"/><path fill-rule="evenodd" d="M10 16.969c-.08.02-.164.031-.25.031h-3a1 1 0 0 1-1-1v-3.5a1 1 0 0 1 1-1h.75v-3a1 1 0 0 1 1-1h3a1 1 0 0 1 1 1v3h.75a1 1 0 0 1 1 1v3.5a1 1 0 0 1-1 1h-3c-.086 0-.17-.01-.25-.031Zm.75-3.969v2.5h2v-2.5h-2Zm-1.5 2.5v-2.5h-2v2.5h2Zm1.75-4v-2.5h-2v2.5h2Z" fill="#5C5F62"/></svg>
